src/components/icons/svg/originals/IconInstitution.svg

<svg fill="none" xmlns="http://www.w3.org/2000/svg" viewBox="0 0 24 24">
  <path
    fill-rule="evenodd"
    clip-rule="evenodd"
    d="M10.4023 2.68517c.9818-.62476 2.2365-.62476 3.2182 0l7.9187 5.03918a.999.999 0 0 1 .4627.84286l-.0229 1.42337H1.99809l.02288-1.42337a.99903.99903 0 0 1 .46269-.84286l7.91864-5.03918Zm4.291-1.68572c-1.6363-1.04126-3.7274-1.04126-5.36368 0L1.41093 6.03864C.54641 6.58878.02288 7.54248.02288 8.56721L0 10.9896c0 .5518.44729.9991.99905.9991h.99904v9.9905H.99905c-.55176 0-.99905.4473-.99905.999 0 .5518.44729.9991.99905.9991H22.9781c.5517 0 .999-.4473.999-.9991 0-.5517-.4473-.999-.999-.999h-.9991v-9.9905h.9991c.5517 0 .999-.4473.999-.9991L24 8.56721c0-1.02473-.5235-1.97843-1.388-2.52858L14.6933.99945ZM5.99428 21.9792H3.99619v-9.9905h1.99809v9.9905Zm9.99042-9.9905v9.9905H7.99237v-9.9905h7.99233Zm3.9962 9.9905h-1.9981v-9.9905h1.9981v9.9905ZM13.51 6.47125c0 .82764-.6709 1.49857-1.4986 1.49857-.8276 0-1.4985-.67093-1.4985-1.49857 0-.82764.6709-1.49858 1.4985-1.49858.8277 0 1.4986.67094 1.4986 1.49858Z"
    fill="#0E0F13"
  />
</svg>

<svg viewBox="0 0 24 24" fill="none" xmlns="http://www.w3.org/2000/svg">
<path fill-rule="evenodd" clip-rule="evenodd" d="M10.4023 2.68497C11.3841 2.06021 12.6388 2.06021 13.6205 2.68497L21.5392 7.72414C21.8274 7.90752 22.0019 8.22542 22.0019 8.56699L21.979 9.99037H1.99809L2.02097 8.56699C2.02097 8.22542 2.19548 7.90752 2.48366 7.72414L10.4023 2.68497ZM14.6933 0.999255C13.057 -0.0420089 10.9659 -0.0420063 9.32962 0.999256L1.41093 6.03842C0.54641 6.58857 0.0228809 7.54227 0.0228809 8.56699L0 10.9894C0 11.5412 0.447288 11.9885 0.999047 11.9885H1.99809V21.979H0.999047C0.447288 21.979 0 22.4262 0 22.978C0 23.5298 0.447288 23.9771 0.999047 23.9771H2.99714H6.99333H16.9838H20.98H22.9781C23.5298 23.9771 23.9771 23.5298 23.9771 22.978C23.9771 22.4262 23.5298 21.979 22.9781 21.979H21.979V11.9885H22.9781C23.5298 11.9885 23.9771 11.5412 23.9771 10.9894L24 8.56699C24 7.54227 23.4765 6.58857 22.612 6.03842L14.6933 0.999255ZM5.99428 21.979H3.99619V11.9885H5.99428V21.979ZM15.9847 11.9885V21.979H7.99237V11.9885H15.9847ZM19.9809 21.979H17.9828V11.9885H19.9809V21.979ZM13.51 6.47104C13.51 7.29868 12.8391 7.96961 12.0114 7.96961C11.1838 7.96961 10.5129 7.29868 10.5129 6.47104C10.5129 5.6434 11.1838 4.97247 12.0114 4.97247C12.8391 4.97247 13.51 5.6434 13.51 6.47104Z" fill="#2B2E38"/>
</svg>
